result/img/flogo.svg

<svg width="61" height="61" viewBox="0 0 61 61" fill="none" xmlns="http://www.w3.org/2000/svg">
<mask id="mask0_65972_1556" style="mask-type:luminance" maskUnits="userSpaceOnUse" x="0" y="0" width="61" height="61">
<path d="M54.9 0H6.1C2.73106 0 0 2.73106 0 6.1V54.9C0 58.2689 2.73106 61 6.1 61H54.9C58.2689 61 61 58.2689 61 54.9V6.1C61 2.73106 58.2689 0 54.9 0Z" fill="white"/>
</mask>
<g mask="url(#mask0_65972_1556)">
<path d="M54.9 0H6.1C2.73106 0 0 2.73106 0 6.1V54.9C0 58.2689 2.73106 61 6.1 61H54.9C58.2689 61 61 58.2689 61 54.9V6.1C61 2.73106 58.2689 0 54.9 0Z" fill="#0E93B9"/>
<path fill-rule="evenodd" clip-rule="evenodd" d="M17.401 45.3331C18.0541 44.9827 18.6092 45.5429 18.5573 46.0836C18.4986 46.6224 18.1001 46.8683 17.6981 46.8752C17.1547 46.8857 16.748 46.4413 16.7407 45.8902C16.7487 45.1513 17.2895 44.7139 17.89 44.6973C18.8929 44.7461 19.2809 45.6283 19.2521 46.2424C19.2176 47.0088 18.465 47.7133 17.7 47.7245L17.7105 47.4459C18.3708 47.3717 19.0002 46.9156 19.0104 46.1954C19.0022 45.6137 18.6848 44.9585 17.8838 44.9203C17.428 44.8917 16.9102 45.3213 16.9016 45.8735C16.9001 46.282 17.178 46.7023 17.6919 46.7196C18.0673 46.7223 18.4055 46.4449 18.4206 46.0555C18.4579 45.5881 18.0742 45.1237 17.401 45.3331Z" fill="white"/>
<path fill-rule="evenodd" clip-rule="evenodd" d="M43.5875 45.327C42.9344 44.9769 42.3791 45.5369 42.4311 46.0777C42.4897 46.6166 42.8882 46.8622 43.2902 46.8693C43.8337 46.8799 44.2404 46.4354 44.2477 45.8844C44.2396 45.1455 43.6989 44.7081 43.0983 44.6914C42.0954 44.7402 41.7075 45.6225 41.7364 46.2365C41.7709 47.0029 42.5235 47.7074 43.2884 47.7186L43.2778 47.4401C42.6176 47.3658 41.9881 46.9098 41.9779 46.1896C41.9863 45.6078 42.3035 44.9525 43.1046 44.9145C43.5603 44.8856 44.0781 45.3154 44.0869 45.8677C44.0883 46.2762 43.8104 46.6965 43.2965 46.7136C42.9212 46.7164 42.5828 46.4391 42.5678 46.0497C42.5306 45.5822 42.9143 45.1176 43.5875 45.327Z" fill="white"/>
<path fill-rule="evenodd" clip-rule="evenodd" d="M17.7003 47.7241C16.237 47.754 15.5438 46.5147 15.6077 45.6778C15.6891 44.2778 16.9508 43.2679 18.227 43.3063C20.4873 43.4029 21.3169 45.0292 21.1874 46.4734C21.0544 48.1515 19.4741 49.6723 17.7616 49.6963C15.1058 49.7363 13.4173 47.5891 13.4492 45.3716C13.5176 43.4365 15.0825 41.1254 18.2477 41.0469L18.2352 41.8592C15.5505 41.9336 14.439 43.7012 14.2763 45.4131C14.2117 46.8494 15.2621 48.8874 17.6812 48.9956C19.3323 48.9791 20.4541 47.8132 20.6003 46.4901C20.7199 45.2355 20.1203 43.8984 18.305 43.7439C17.27 43.7248 16.1441 44.3919 15.994 45.6463C15.9384 46.4228 16.5654 47.4285 17.7107 47.4456C17.7072 47.5385 17.7038 47.6314 17.7003 47.7241Z" fill="white"/>
<path fill-rule="evenodd" clip-rule="evenodd" d="M43.2882 47.7185C44.7514 47.7482 45.4446 46.5091 45.3807 45.6719C45.2994 44.272 44.0377 43.262 42.7614 43.3007C40.5011 43.397 39.6715 45.0233 39.8011 46.4678C39.934 48.1457 41.5143 49.6664 43.2268 49.6906C45.8826 49.7305 47.571 47.5835 47.5393 45.3657C47.471 43.4308 45.9059 41.1195 42.7407 41.041L42.7533 41.8535C45.4379 41.928 46.5495 43.6955 46.7122 45.4072C46.7766 46.8435 45.7264 48.8818 43.3073 48.9899C41.6561 48.9733 40.5343 47.8073 40.3881 46.4842C40.2685 45.2299 40.8682 43.8928 42.6835 43.738C43.7183 43.7189 44.8443 44.3861 44.9944 45.6404C45.0501 46.4169 44.423 47.4226 43.2777 47.4397C43.2811 47.5326 43.2848 47.6256 43.2882 47.7185Z" fill="white"/>
<path fill-rule="evenodd" clip-rule="evenodd" d="M18.2475 41.0476C22.1099 41.2975 23.6379 44.5273 23.5273 46.8134C23.2673 49.3333 21.3352 52.4988 17.0856 52.5356C12.3968 52.5036 9.96384 48.5067 9.96384 45.2798C9.93889 42.7131 10.9105 38.0521 17.5628 37.9602L30.5067 37.9238L30.4984 39.1973L17.5239 39.189C13.4865 39.094 11.3694 42.0035 11.3217 45.2524C11.4803 49.4134 14.4864 51.7121 17.3103 51.5856C21.507 51.2867 22.6247 48.3392 22.799 46.716C22.9165 44.5675 21.3787 41.9889 18.235 41.86L18.2475 41.0476Z" fill="white"/>
<path fill-rule="evenodd" clip-rule="evenodd" d="M42.7406 41.0416C38.8781 41.2917 37.35 44.5214 37.4607 46.8073C37.7207 49.3274 39.6528 52.4929 43.9025 52.5297C48.5911 52.4976 51.0242 48.5009 51.0242 45.2738C51.0492 42.7073 50.0775 38.0463 43.4252 37.9542L30.4814 37.918L30.4896 39.1914L43.4643 39.1831C47.5015 39.0879 49.6186 41.9976 49.6663 45.2465C49.5077 49.4075 46.5017 51.7062 43.6778 51.5795C39.481 51.2808 38.3633 48.3331 38.1892 46.7099C38.0715 44.5617 39.6095 41.9828 42.753 41.8541L42.7406 41.0416Z" fill="white"/>
<path fill-rule="evenodd" clip-rule="evenodd" d="M22.8433 48.5966C23.7929 45.319 23.0499 42.7629 19.3203 41.207C23.3614 42.2615 26.2351 42.9779 30.4913 42.8937V42.8945C34.7375 42.976 37.6088 42.2603 41.6442 41.2074C37.9146 42.7633 37.1716 45.3194 38.1212 48.5968C37.3961 48.4223 36.8367 47.7507 36.5242 47.0272C36.0002 48.1275 35.0379 48.637 34.3364 48.6187C33.4378 48.5968 32.8429 48.0486 32.4321 47.1913C32.1406 48.0463 31.2646 48.633 30.5064 48.633C29.7485 48.633 28.9987 48.0459 28.555 47.1446C28.1442 48.0018 27.5267 48.5964 26.6282 48.6183C25.9267 48.6366 25.0105 48.071 24.4865 46.9709C24.174 47.6944 23.5684 48.4219 22.8433 48.5966ZM37.7967 44.8516C38.0238 43.9585 38.5283 43.2178 39.1625 42.5484C38.5767 42.6104 38.1846 42.8128 37.9 43.205C37.523 43.7578 37.5671 44.4016 37.7967 44.8516ZM37.729 47.8705C37.4526 46.998 37.4232 46.0695 37.7105 45.0696C37.2461 45.2989 36.9701 45.9061 36.9756 46.4238C36.975 46.9557 37.2509 47.5039 37.729 47.8705ZM32.6666 46.6572C32.9661 47.4079 33.3315 48.1661 34.3701 48.3005C35.3191 48.3491 36.1824 47.283 36.5118 46.1527C36.8036 45.1177 36.8927 44.1324 36.8914 43.048L36.5529 43.085C36.5254 44.184 36.4065 45.1828 36.1479 46.0287C35.9116 46.8357 35.1263 47.9111 34.3616 47.8556C33.4142 47.7639 33.1149 46.7599 32.8815 45.8963C32.8414 46.1637 32.7701 46.4174 32.6666 46.6572ZM34.7072 43.4256C34.0588 43.3733 33.461 44.2194 33.3726 45.3152C33.2843 46.4111 33.7386 47.3422 34.3872 47.3945C35.0356 47.4467 35.6334 46.6006 35.7217 45.5047C35.8101 44.4089 35.3559 43.4779 34.7072 43.4256ZM30.5271 43.4644C31.1778 43.4644 31.7056 44.3559 31.7056 45.4553C31.7056 46.5547 31.1778 47.4461 30.5271 47.4461C29.8764 47.4461 29.3488 46.5547 29.3488 45.4553C29.3488 44.3559 29.8764 43.4644 30.5271 43.4644ZM30.5058 48.3341L30.4993 48.3339L30.4927 48.3341C29.5405 48.3133 28.886 47.3205 28.5798 46.2515C28.3338 45.4463 28.3478 44.4512 28.436 43.5387L28.7951 43.5551C28.7528 44.4219 28.6987 45.3091 28.9602 46.1551C29.2061 47.071 29.7888 47.8678 30.4993 47.9065C31.229 47.8678 31.8276 47.071 32.0802 46.1551C32.3486 45.3091 32.2931 44.4219 32.2498 43.5551L32.6184 43.5387C32.7091 44.4512 32.7235 45.4463 32.4708 46.2515C32.1562 47.3207 31.484 48.3135 30.5058 48.3341ZM26.3336 43.4339C26.9822 43.3815 27.5798 44.2277 27.6682 45.3235C27.7567 46.4195 27.3024 47.3505 26.6538 47.4028C26.0052 47.4551 25.4076 46.6088 25.3191 45.513C25.2307 44.4173 25.6851 43.4862 26.3336 43.4339ZM28.3895 46.698C28.09 47.4488 27.7246 48.2072 26.6861 48.3414C25.737 48.39 24.8738 47.3239 24.5444 46.1936C24.2524 45.1586 24.1634 44.1733 24.1648 43.0889L24.5032 43.1261C24.5308 44.2249 24.6496 45.2239 24.9082 46.0695C25.1447 46.8766 25.9299 47.952 26.6945 47.8967C27.6418 47.8048 27.9411 46.8007 28.1745 45.9372C28.2146 46.2046 28.286 46.4583 28.3895 46.698ZM23.3122 47.9195C23.5886 47.047 23.6182 46.1185 23.3307 45.1186C23.7951 45.3481 24.0713 45.9551 24.0658 46.473C24.0664 47.0047 23.7905 47.5529 23.3122 47.9195ZM23.2445 44.9006C23.0174 44.0075 22.5131 43.2668 21.8787 42.5976C22.4647 42.6594 22.8566 42.8618 23.1412 43.254C23.5182 43.8069 23.4743 44.4508 23.2445 44.9006Z" fill="white"/>
<path fill-rule="evenodd" clip-rule="evenodd" d="M16.4329 38.22L16.4282 37.4703C16.4476 37.2059 16.2726 37.0372 16.0513 36.8355L15.3305 36.075C15.1367 35.8885 15.0724 35.7143 15.0684 35.4343L15.0692 32.9538C15.0817 32.6151 15.2091 32.3516 15.7321 32.3516H30.5124L30.5022 33.4024L16.4083 33.43C16.1931 33.4339 16.137 33.5195 16.1367 33.7367L16.1357 34.8428C16.1343 34.9939 16.1678 35.0598 16.4314 35.0549L30.503 35.0537L30.4979 35.7397L16.6942 35.7413C16.4629 35.7419 16.3883 35.8603 16.5268 35.9892L17.2658 36.6612L30.4987 36.6677V37.1163L17.8167 37.0933C17.6015 37.0994 17.4831 37.1266 17.4861 37.3379L17.4927 37.8206L17.8233 38.0917L16.4329 38.22Z" fill="white"/>
<path fill-rule="evenodd" clip-rule="evenodd" d="M44.5864 38.22L44.5911 37.4703C44.5716 37.2059 44.7467 37.0372 44.9681 36.8355L45.6887 36.075C45.8825 35.8885 45.947 35.7143 45.951 35.4343L45.95 32.9538C45.9376 32.6151 45.8101 32.3516 45.2871 32.3516H30.5068L30.5172 33.4024L44.6108 33.43C44.8262 33.4339 44.8823 33.5195 44.8825 33.7367L44.8835 34.8428C44.8849 34.9939 44.8514 35.0598 44.5879 35.0549L30.5164 35.0537L30.5213 35.7397L44.325 35.7413C44.5564 35.7419 44.631 35.8603 44.4925 35.9892L43.7534 36.6612L30.5205 36.6677V37.1163L43.2026 37.0933C43.4177 37.0994 43.5362 37.1266 43.5332 37.3379L43.5265 37.8206L43.1959 38.0917L44.5864 38.22Z" fill="white"/>
<path fill-rule="evenodd" clip-rule="evenodd" d="M22.2743 49.041H38.7551L40.0922 50.773H21.4004L22.2743 49.041ZM30.5898 49.4034C30.9184 49.4034 31.185 49.6431 31.185 49.9389C31.185 50.2346 30.9184 50.4745 30.5898 50.4745C30.2612 50.4745 29.9947 50.2346 29.9947 49.9389C29.9947 49.6431 30.2612 49.4034 30.5898 49.4034ZM31.7779 49.4883H32.782C32.7293 49.5829 32.7004 49.6852 32.7004 49.7923C32.7004 49.9479 32.7612 50.0937 32.8674 50.2193H31.7456C31.8383 50.103 31.8906 49.9715 31.8906 49.832C31.8906 49.7098 31.8503 49.5935 31.7779 49.4883ZM33.9522 49.4308C34.2807 49.4308 34.5471 49.6707 34.5471 49.9666C34.5471 50.2622 34.2807 50.502 33.9522 50.502C33.6234 50.502 33.357 50.2622 33.357 49.9666C33.357 49.6707 33.6234 49.4308 33.9522 49.4308ZM35.1272 49.4883H36.0876C36.031 49.5866 35.9999 49.6935 35.9999 49.8055C35.9999 49.9556 36.0556 50.0967 36.1534 50.2193H35.0418C35.148 50.0937 35.2088 49.9479 35.2088 49.7923C35.2088 49.6852 35.1799 49.5829 35.1272 49.4883ZM37.1581 49.4176C37.4867 49.4176 37.7531 49.6575 37.7531 49.9534C37.7531 50.249 37.4867 50.489 37.1581 50.489C36.8295 50.489 36.563 50.249 36.563 49.9534C36.563 49.6575 36.8295 49.4176 37.1581 49.4176ZM23.879 49.3714C24.2076 49.3714 24.474 49.6114 24.474 49.907C24.474 50.2029 24.2076 50.4426 23.879 50.4426C23.5502 50.4426 23.2839 50.2029 23.2839 49.907C23.2839 49.6114 23.5502 49.3714 23.879 49.3714ZM24.9504 49.4883H25.9443C25.881 49.59 25.8461 49.7016 25.8461 49.8188C25.8461 49.9635 25.8993 50.0998 25.9935 50.2193H24.9394C25.0146 50.1063 25.0571 49.9794 25.0571 49.8454C25.0571 49.7179 25.0189 49.5969 24.9504 49.4883ZM27.1134 49.4316C27.4422 49.4316 27.7086 49.6716 27.7086 49.9674C27.7086 50.263 27.4422 50.503 27.1134 50.503C26.7849 50.503 26.5185 50.263 26.5185 49.9674C26.5185 49.6716 26.7849 49.4316 27.1134 49.4316ZM28.2895 49.4883H29.3178C29.2454 49.5935 29.2049 49.7098 29.2049 49.832C29.2049 49.9715 29.2572 50.103 29.3499 50.2193H28.2403C28.3343 50.0998 28.3877 49.9635 28.3877 49.8188C28.3877 49.7016 28.3528 49.59 28.2895 49.4883Z" fill="white"/>
<path d="M19.9959 51.8984H18.9199V64.2164H19.9959V51.8984Z" fill="white"/>
<path d="M42.1141 51.8906H41.0381V64.2086H42.1141V51.8906Z" fill="white"/>
<path fill-rule="evenodd" clip-rule="evenodd" d="M37.4533 64.2033L37.4492 53.3726C37.4565 52.4679 37.8526 51.8777 38.7739 51.8496C39.6863 51.8823 40.1226 52.4238 40.1521 53.3766L40.1479 64.206L39.535 64.2123L39.5285 53.6851C39.5088 53.2567 39.2371 52.8614 38.7264 52.8333C38.0936 52.7729 37.9079 53.3207 37.8949 53.7687L37.8955 64.2039L37.4533 64.2033Z" fill="white"/>
<path fill-rule="evenodd" clip-rule="evenodd" d="M23.5753 64.1877L23.5794 53.3569C23.5721 52.4523 23.176 51.862 22.2547 51.834C21.3423 51.8667 20.9059 52.4082 20.8765 53.361L20.8807 64.1904L21.4936 64.1967L21.5001 53.6695C21.5198 53.2413 21.7915 52.8458 22.3022 52.8177C22.935 52.7573 23.1207 53.3051 23.1337 53.753L23.1331 64.1883L23.5753 64.1877Z" fill="white"/>
<path fill-rule="evenodd" clip-rule="evenodd" d="M27.7319 64.1797L27.7362 53.3489C27.7283 52.4443 27.3106 51.8542 26.3389 51.8262C25.3765 51.8587 24.9164 52.4004 24.8853 53.3532L24.8897 64.1825L25.5361 64.1888L25.543 53.6617C25.564 53.2332 25.8503 52.838 26.3891 52.8099C27.0564 52.7495 27.2525 53.2973 27.2661 53.7452L27.2655 64.1805L27.7319 64.1797Z" fill="white"/>
<path fill-rule="evenodd" clip-rule="evenodd" d="M33.3109 64.1973L33.3066 53.3665C33.3144 52.4619 33.7322 51.8716 34.7039 51.8438C35.6663 51.8763 36.1265 52.4178 36.1576 53.3706L36.1531 64.2001L35.5067 64.2062L35.4998 53.679C35.4789 53.2508 35.1926 52.8553 34.6537 52.8275C33.9864 52.7671 33.7904 53.3147 33.7767 53.7626L33.7774 64.1979L33.3109 64.1973Z" fill="white"/>
<path fill-rule="evenodd" clip-rule="evenodd" d="M28.9701 64.2431L28.9658 53.4124C28.9733 52.5409 29.3615 51.9616 30.2588 51.8951H30.2604C30.4432 51.8817 30.611 51.887 30.7944 51.8931C31.6637 51.9732 32.0634 52.5628 32.0709 53.4217L32.0667 64.2523L31.6002 64.2531L31.6008 53.8178C31.587 53.3699 31.3798 52.8544 30.7186 52.8607L30.2588 52.8699C29.6307 52.889 29.4493 53.3731 29.4359 53.8087L29.4365 64.2439L28.9701 64.2431Z" fill="white"/>
<path d="M29.4917 10.7773H39.001C41.2035 10.7773 43.1569 11.188 44.8615 12.0092C46.5662 12.8305 47.8877 13.9955 48.8261 15.5043C49.7646 17.0131 50.2337 18.7798 50.2337 20.8043C50.2337 22.8287 49.7646 24.5953 48.8261 26.1042C47.8877 27.6129 46.5662 28.778 44.8615 29.5993C43.1569 30.4206 41.2035 30.8311 39.001 30.8311H29.4917V10.7773ZM38.771 26.3047C40.4949 26.3047 41.8737 25.8177 42.908 24.8435C43.9613 23.8696 44.4881 22.5231 44.4881 20.8043C44.4881 19.0853 43.9613 17.7389 42.908 16.7648C41.8737 15.7908 40.4949 15.3038 38.771 15.3038H35.18V26.3047H38.771Z" fill="white"/>
<path d="M23.0389 18.8215C24.704 19.1663 25.9768 19.8558 26.8573 20.8899C27.757 21.9052 28.2068 23.1404 28.2068 24.5961C28.2068 25.7835 27.8815 26.8848 27.2306 27.9C26.599 28.9151 25.6228 29.7386 24.3022 30.3707C23.0005 30.9836 21.3831 31.29 19.45 31.29C18.0336 31.29 16.6267 31.1176 15.2295 30.7729C13.8514 30.4281 12.6551 29.9397 11.6406 29.3077L13.7078 25.0269C14.4926 25.5633 15.373 25.9751 16.3492 26.2624C17.3445 26.5497 18.3207 26.6933 19.2777 26.6933C20.2539 26.6933 21.0291 26.5113 21.6033 26.1475C22.1776 25.7835 22.4647 25.2665 22.4647 24.5961C22.4647 23.2937 21.4407 22.6425 19.3925 22.6425H17.0096V19.0513L20.5985 15.1729H12.6742V10.7773H27.2019V14.3398L23.0389 18.8215Z" fill="white"/>
</g>
</svg>

<svg xmlns="http://www.w3.org/2000/svg" width="61" height="61" fill="none" viewBox="0 0 61 61"><mask id="a" width="61" height="61" x="0" y="0" maskUnits="userSpaceOnUse" style="mask-type:luminance"><path fill="#fff" d="M54.9 0H6.1A6.1 6.1 0 0 0 0 6.1v48.8A6.1 6.1 0 0 0 6.1 61h48.8a6.1 6.1 0 0 0 6.1-6.1V6.1A6.1 6.1 0 0 0 54.9 0"/></mask><g mask="url(#a)"><path fill="#0e93b9" d="M54.9 0H6.1A6.1 6.1 0 0 0 0 6.1v48.8A6.1 6.1 0 0 0 6.1 61h48.8a6.1 6.1 0 0 0 6.1-6.1V6.1A6.1 6.1 0 0 0 54.9 0"/><path fill="#fff" fill-rule="evenodd" d="M17.401 45.333c.653-.35 1.208.21 1.156.75-.058.54-.457.785-.859.792-.543.01-.95-.434-.957-.985.008-.739.549-1.176 1.149-1.193 1.003.05 1.39.931 1.362 1.545-.034.767-.787 1.471-1.552 1.483l.01-.28c.66-.073 1.29-.53 1.3-1.25-.008-.581-.325-1.236-1.126-1.275-.456-.028-.974.401-.982.953-.002.409.276.83.79.847.375.002.713-.275.729-.664.037-.468-.347-.932-1.02-.723m26.187-.006c-.654-.35-1.209.21-1.157.75.059.54.457.785.86.792.543.01.95-.434.957-.985-.008-.739-.55-1.176-1.15-1.193-1.003.05-1.39.931-1.362 1.545.035.767.788 1.471 1.552 1.483l-.01-.279c-.66-.074-1.29-.53-1.3-1.25.008-.582.325-1.237 1.127-1.276.455-.028.973.401.982.954.001.408-.277.828-.79.846-.376.002-.714-.275-.73-.664-.036-.468.347-.932 1.02-.723" clip-rule="evenodd"/><path fill="#fff" fill-rule="evenodd" d="M17.7 47.724c-1.463.03-2.156-1.21-2.092-2.046.081-1.4 1.343-2.41 2.619-2.372 2.26.097 3.09 1.723 2.96 3.167-.133 1.678-1.713 3.2-3.425 3.223-2.656.04-4.345-2.107-4.313-4.324.069-1.935 1.633-4.247 4.799-4.325l-.013.812c-2.684.075-3.796 1.842-3.959 3.554-.064 1.436.986 3.474 3.405 3.583 1.651-.017 2.773-1.183 2.92-2.506.119-1.255-.48-2.592-2.296-2.746-1.035-.02-2.16.648-2.311 1.902-.056.777.571 1.782 1.717 1.8zm25.588-.005c1.463.03 2.157-1.21 2.093-2.047-.082-1.4-1.343-2.41-2.62-2.371-2.26.096-3.09 1.722-2.96 3.167.133 1.678 1.713 3.198 3.426 3.223 2.656.04 4.344-2.108 4.312-4.325-.068-1.935-1.633-4.246-4.798-4.325l.012.813c2.685.074 3.797 1.842 3.96 3.553.064 1.437-.987 3.475-3.406 3.583-1.65-.017-2.773-1.183-2.919-2.506-.12-1.254.48-2.591 2.296-2.746 1.034-.02 2.16.648 2.31 1.902.056.777-.571 1.783-1.716 1.8z" clip-rule="evenodd"/><path fill="#fff" fill-rule="evenodd" d="M18.248 41.048c3.862.25 5.39 3.48 5.28 5.765-.26 2.52-2.193 5.686-6.442 5.723-4.69-.032-7.122-4.03-7.122-7.256-.025-2.567.947-7.228 7.599-7.32l12.944-.036-.009 1.273-12.974-.008c-4.038-.095-6.155 2.815-6.202 6.063.158 4.161 3.164 6.46 5.988 6.334 4.197-.3 5.315-3.247 5.489-4.87.117-2.148-1.42-4.727-4.564-4.856z" clip-rule="evenodd"/><path fill="#fff" fill-rule="evenodd" d="M42.74 41.042c-3.862.25-5.39 3.48-5.28 5.765.26 2.52 2.193 5.686 6.443 5.723 4.688-.032 7.121-4.03 7.121-7.256.025-2.567-.947-7.228-7.599-7.32l-12.944-.036.009 1.273 12.974-.008c4.038-.095 6.155 2.815 6.202 6.063-.158 4.161-3.164 6.46-5.988 6.334-4.197-.3-5.315-3.247-5.489-4.87-.117-2.148 1.42-4.727 4.564-4.856z" clip-rule="evenodd"/><path fill="#fff" fill-rule="evenodd" d="M22.843 48.597c.95-3.278.207-5.834-3.523-7.39 4.041 1.054 6.915 1.77 11.171 1.687 4.246.082 7.118-.634 11.153-1.687-3.73 1.556-4.472 4.112-3.523 7.39-.725-.175-1.284-.846-1.597-1.57-.524 1.1-1.486 1.61-2.188 1.592-.898-.022-1.493-.57-1.904-1.428-.291.855-1.167 1.442-1.926 1.442s-1.507-.587-1.951-1.488c-.41.857-1.028 1.451-1.927 1.473-.701.019-1.617-.547-2.142-1.647-.312.723-.918 1.45-1.643 1.626m14.954-3.745c.227-.893.731-1.634 1.366-2.304-.586.062-.978.265-1.263.657a1.62 1.62 0 0 0-.103 1.647m-.068 3.019c-.276-.873-.306-1.802-.018-2.801-.465.229-.74.836-.735 1.354-.001.532.275 1.08.753 1.447m-5.062-1.214c.3.75.664 1.51 1.703 1.644.95.048 1.812-1.018 2.142-2.148.292-1.035.38-2.02.38-3.105l-.34.037c-.027 1.099-.145 2.098-.404 2.944-.236.807-1.022 1.882-1.786 1.827-.948-.092-1.247-1.096-1.48-1.96q-.06.401-.215.761m2.04-3.231c-.648-.053-1.246.793-1.334 1.89-.089 1.095.366 2.026 1.014 2.078.649.053 1.246-.793 1.335-1.89.088-1.095-.366-2.026-1.015-2.078m-4.18.038c.65 0 1.179.892 1.179 1.991s-.528 1.991-1.179 1.991c-.65 0-1.178-.891-1.178-1.99 0-1.1.527-1.992 1.178-1.992m-.021 4.87h-.013c-.952-.02-1.607-1.014-1.913-2.083-.246-.805-.232-1.8-.144-2.712l.36.016c-.043.867-.097 1.754.164 2.6.246.916.829 1.713 1.54 1.752.729-.04 1.328-.836 1.58-1.752.269-.846.213-1.733.17-2.6l.368-.016c.091.912.105 1.907-.147 2.712-.315 1.07-.987 2.063-1.965 2.083m-4.172-4.9c.648-.052 1.246.794 1.334 1.89s-.366 2.026-1.014 2.079c-.649.052-1.246-.794-1.335-1.89s.366-2.027 1.015-2.08m2.056 3.264c-.3.75-.665 1.51-1.704 1.643-.949.049-1.812-1.017-2.142-2.147-.292-1.035-.38-2.02-.38-3.105l.34.037c.027 1.099.146 2.098.404 2.944.237.807 1.022 1.882 1.787 1.827.947-.092 1.246-1.096 1.48-1.96q.06.402.215.761m-5.078 1.221c.277-.872.306-1.8.019-2.8.464.23.74.836.735 1.354 0 .532-.275 1.08-.754 1.447m-.068-3.018c-.227-.894-.73-1.634-1.365-2.303.586.061.978.264 1.262.656.377.553.333 1.197.104 1.647m-6.812-6.681-.005-.75c.02-.264-.155-.433-.377-.634l-.72-.761c-.194-.187-.259-.36-.263-.64l.001-2.481c.013-.339.14-.602.663-.602h14.78l-.01 1.05-14.094.028c-.215.004-.271.09-.271.307l-.001 1.106c-.002.15.032.217.295.212l14.072-.001-.005.686-13.804.001c-.231 0-.306.12-.167.248l.739.672 13.233.007v.448l-12.682-.023c-.215.006-.334.034-.33.245l.006.483.33.27z" clip-rule="evenodd"/><path fill="#fff" fill-rule="evenodd" d="m44.586 38.22.005-.75c-.02-.264.156-.433.377-.634l.72-.761c.194-.187.259-.36.263-.64l-.001-2.481c-.012-.339-.14-.602-.663-.602h-14.78l.01 1.05 14.094.028c.215.004.271.09.272.307v1.106c.002.15-.032.217-.295.212l-14.072-.001.005.686 13.804.001c.231 0 .306.12.167.248l-.739.672-13.233.007v.448l12.683-.023c.215.006.333.034.33.245l-.007.483-.33.27zM22.274 49.041h16.481l1.337 1.732H21.4zm8.316.362c.328 0 .595.24.595.536s-.267.535-.595.535c-.329 0-.595-.24-.595-.535s.266-.536.595-.536m1.188.085h1.004a.6.6 0 0 0-.082.304c0 .156.061.302.167.427h-1.121a.62.62 0 0 0 .145-.387.6.6 0 0 0-.113-.344m2.174-.057c.329 0 .595.24.595.536 0 .295-.266.535-.595.535s-.595-.24-.595-.535.266-.536.595-.536m1.175.057h.96a.63.63 0 0 0-.087.318c0 .15.056.29.153.413h-1.111a.66.66 0 0 0 .167-.427.6.6 0 0 0-.082-.304m2.031-.07c.329 0 .595.24.595.535s-.266.536-.595.536-.595-.24-.595-.536.267-.535.595-.535M23.88 49.37c.329 0 .595.24.595.536s-.266.536-.595.536-.595-.24-.595-.536.266-.536.595-.536m1.071.117h.994a.6.6 0 0 0-.098.33c0 .146.053.282.148.401H24.94a.67.67 0 0 0 .118-.374.67.67 0 0 0-.107-.357m2.163-.056c.33 0 .596.24.596.535s-.267.536-.596.536-.594-.24-.594-.536c0-.295.266-.535.594-.535m1.177.056h1.028a.6.6 0 0 0-.113.344c0 .14.052.271.145.387h-1.11a.64.64 0 0 0 .148-.4.6.6 0 0 0-.099-.33" clip-rule="evenodd"/><path fill="#fff" d="M19.996 51.898H18.92v12.318h1.076zm22.118-.008h-1.076v12.32h1.076z"/><path fill="#fff" fill-rule="evenodd" d="m37.453 64.203-.004-10.83c.008-.905.404-1.495 1.325-1.523.912.032 1.349.574 1.378 1.527l-.004 10.829-.613.006-.006-10.527c-.02-.428-.292-.824-.803-.852-.632-.06-.818.488-.831.936v10.435zm-13.878-.015.004-10.831c-.007-.905-.403-1.495-1.324-1.523-.913.033-1.35.574-1.378 1.527l.004 10.83.613.006.006-10.528c.02-.428.291-.823.802-.851.633-.06.819.487.832.935v10.435zm4.157-.008.004-10.831c-.008-.905-.425-1.495-1.397-1.523-.962.033-1.423.574-1.454 1.527l.005 10.83.646.006.007-10.527c.021-.429.307-.824.846-.852.667-.06.864.487.877.935V64.18zm5.578.017-.003-10.83c.007-.905.425-1.495 1.397-1.523.962.032 1.422.574 1.454 1.527l-.005 10.83-.646.005L35.5 53.68c-.021-.428-.307-.824-.846-.852-.668-.06-.864.488-.877.936v10.435zm-4.34.046-.004-10.83c.007-.872.395-1.451 1.293-1.518h.001c.183-.013.351-.008.534-.002.87.08 1.27.67 1.277 1.529l-.004 10.83-.467.001V53.818c-.013-.448-.22-.964-.881-.957l-.46.009c-.628.019-.81.503-.823.939v10.435z" clip-rule="evenodd"/><path fill="#fff" d="M29.492 10.777H39q3.304 0 5.86 1.232 2.558 1.232 3.965 3.495 1.408 2.265 1.408 5.3 0 3.037-1.408 5.3T44.861 29.6t-5.86 1.232h-9.51zm9.279 15.528q2.586 0 4.137-1.462 1.58-1.46 1.58-4.039t-1.58-4.04q-1.551-1.46-4.137-1.46H35.18v11zm-15.732-7.483q2.498.517 3.818 2.068 1.35 1.522 1.35 3.706a6 6 0 0 1-.976 3.304q-.948 1.523-2.929 2.47-1.953.92-4.852.92a17.6 17.6 0 0 1-4.22-.517q-2.068-.517-3.59-1.465l2.068-4.281a9.3 9.3 0 0 0 2.641 1.235q1.493.432 2.929.431 1.464 0 2.325-.546.862-.545.862-1.55 0-1.955-3.073-1.955H17.01v-3.59l3.589-3.88h-7.925v-4.395h14.528v3.563z"/></g></svg>
